!!!OTL: Geming yiding neng chenggong
!!!ARE: Asia, China,ÿHenan Xiuwu
!! IV, 135
!!!SCT: C1951
!!!YEM: Copyright 1995, estate of Helmut Schaffrath.
**kern
*ICvox
*Ivox
!! Mixed meters:  2/4; 3/4
*MZ
*k[f#c#g#]
*A:
{16a
16b
16cc#
16ee
4b
=1
8cc#
16cc#
16b
16cc#
16ee
16cc#
16b
4a}
=2
*M2/4
{8ee
8ee
8ff#
16ff#
16ee
=3
8ee
16ee
16cc#
4b}
=4
{8cc#
16cc#
16b
8cc#
16cc#
16b
=5
16cc#
16b
16cc#
16ee
4a}
=6
{8a
8f#
4e
=7
8ee
8b
4ee
=8
16b
16a
8f#
4e}
==
!!!AGN: Xiaodiao
!!!AMT: irregular
!!!AIN: vox
!!!EED: Helmut Schaffrath
!!!EEV: 1.0
*-
